usr/share/icons/biglinux-icons-material/scalable/apps/celluloid.svg

<svg width="24" height="24" viewBox="0 0 24 24" fill="none" xmlns="http://www.w3.org/2000/svg">
<path fill-rule="evenodd" clip-rule="evenodd" d="M9.59604 1.11359C9.71588 1.11486 9.83043 1.0996 9.93969 1.06779C11.3755 0.973736 12.8111 0.977551 14.2467 1.07924C15.5484 1.18066 16.8085 1.46308 18.0269 1.9265C20.0525 2.76044 21.4386 4.20689 22.185 6.26585C22.6119 7.50549 22.8639 8.78021 22.9411 10.09C23.0478 11.7347 23.0096 13.3758 22.8265 15.0133C22.6895 16.1642 22.3916 17.271 21.933 18.3336C21.0824 20.1761 19.704 21.447 17.7978 22.1463C16.2531 22.6682 14.6647 22.943 13.0325 22.9706C11.1966 23.0661 9.37913 22.9287 7.57997 22.5585C4.26839 21.8208 2.22559 19.8018 1.45158 16.5017C1.12311 15.0161 0.974199 13.5124 1.00483 11.9906C0.968176 10.3724 1.14 8.77709 1.52031 7.20471C2.33171 4.11908 4.2905 2.20701 7.39669 1.46852C8.12048 1.29157 8.8536 1.17326 9.59604 1.11359Z" fill="url(#paint0_radial_2_18)"/>
<path opacity="0.5" d="M19.629 17.0581H4.82258C4.36828 17.0581 4 17.4263 4 17.8806C4 18.3349 4.36828 18.7032 4.82258 18.7032H19.629C20.0833 18.7032 20.4516 18.3349 20.4516 17.8806C20.4516 17.4263 20.0833 17.0581 19.629 17.0581Z" fill="#F9F9F9"/>
<path d="M15.9194 19.6387C16.9794 19.6387 17.8387 18.7794 17.8387 17.7194C17.8387 16.6593 16.9794 15.8 15.9194 15.8C14.8593 15.8 14 16.6593 14 17.7194C14 18.7794 14.8593 19.6387 15.9194 19.6387Z" fill="white"/>
<path d="M12.2258 3.8C9.19706 3.8 6.74193 6.25513 6.74193 9.28387C6.74193 12.3126 9.19706 14.7677 12.2258 14.7677C15.2545 14.7677 17.7097 12.3126 17.7097 9.28387C17.7097 6.25513 15.2545 3.8 12.2258 3.8ZM10.5806 5.99355L15.5161 9.28387L10.5806 12.5742V5.99355Z" fill="white"/>
<defs>
<radialGradient id="paint0_radial_2_18" cx="0" cy="0" r="1" gradientUnits="userSpaceOnUse" gradientTransform="translate(12 1) rotate(90) scale(22)">
<stop stop-color="#E1434F"/>
<stop offset="1" stop-color="#9D2F37"/>
</radialGradient>
</defs>
</svg>

<svg xmlns="http://www.w3.org/2000/svg" width="24" height="24" fill="none"><path fill="url(#a)" fill-rule="evenodd" d="M9.596 1.114c.12 0 .234-.014.344-.046a31.627 31.627 0 0 1 4.307.011c1.301.102 2.561.384 3.78.848 2.025.833 3.412 2.28 4.158 4.339.427 1.24.679 2.514.756 3.824a27.94 27.94 0 0 1-.114 4.923 11.88 11.88 0 0 1-.894 3.32c-.85 1.843-2.229 3.114-4.135 3.813a15.624 15.624 0 0 1-4.765.825 21.423 21.423 0 0 1-5.453-.413c-3.312-.737-5.354-2.756-6.128-6.056a19.047 19.047 0 0 1-.447-4.511 18.491 18.491 0 0 1 .515-4.786c.812-3.086 2.77-4.998 5.877-5.736a13.953 13.953 0 0 1 2.199-.355Z" clip-rule="evenodd"/><path fill="#F9F9F9" d="M19.629 17.058H4.823a.823.823 0 1 0 0 1.645h14.806a.823.823 0 0 0 0-1.645Z" opacity=".5"/><path fill="#fff" d="M15.92 19.639a1.92 1.92 0 1 0 0-3.839 1.92 1.92 0 0 0 0 3.839ZM12.226 3.8a5.484 5.484 0 1 0 0 10.968 5.484 5.484 0 0 0 0-10.968ZM10.58 5.994l4.935 3.29-4.935 3.29v-6.58Z"/><defs><radialGradient id="a" cx="0" cy="0" r="1" gradientTransform="matrix(0 22 -22 0 12 1)" gradientUnits="userSpaceOnUse"><stop stop-color="#E1434F"/><stop offset="1" stop-color="#9D2F37"/></radialGradient></defs></svg>
